X:105
T:The Fisher's Hornpipe
N:Allan's  105   pp27
N:Trad/Anon
N:CONVERTED FROM NOTEWORTHY COMPOSER  (WWW.NOTEWORTHYSOFTWARE.COM) BY
N:ABC2NWC (HTTP://MEMBERS.AOL.COM/ABACUSMUSIC/), WITH
Z: (INTO NWC) VINCE BRENNAN 2002   (WWW.SOSYOURMOM.COM)
I:abc2nwc
M:4/4
L:1/8
K:D
((3ABc)|d3/2A/2F3/2B/2G3/2B/2A3/2G/2|F3/2D/2F3/2D/2 G3/2B/2A3/2G/2|F3/2D/2F3/2D/2 G3/2F/2G3/2E/2|F3/2E/2F3/2D/2 E2 ((3ABc)|
d3/2A/2F3/2B/2 G3/2B/2A3/2G/2|F3/2D/2F3/2D/2 G3/2B/2A3/2G/2|F3/2A/2d3/2e/2 f3/2d/2c3/2e/2|d2d2d2:|
|:(c3/2d/2)|e3/2c/2A3/2c/2 e3/2f/2g3/2e/2|f3/2d/2A3/2d/2 f3/2g/2a3/2f/2|e3/2c/2A3/2c/2 e3/2f/2g3/2f/2|e3/2d/2c3/2B/2A2(d3/2c/2)|
B3/2G/2D3/2G/2 B3/2c/2d3/2B/2|A3/2F/2D3/2F/2 A3/2B/2c3/2A/2|B3/2c/2d3/2B/2 A3/2G/2F3/2E/2|D2D2.D2:|
